X:141
T: ADAM HATTE SIEBEN SOEHNE
N: K2238
O: Europa, Mitteleuropa, Deutschland
R: Kinder - Lied, Reigen, Tanz, Nachahmungs - Spiel
M: 2/4
L: 1/8
K: C
 | CDEF | GGGG |
GFcA | G2E
E | GFFF | FEE
E | DDGG | C4

